**harm	**harte	**timestamp	**phrase	**leadinstrument	**kern
*M4/4	*M4/4	*	*	*	*
*G:	*G:	*	*	*	*G:
1r;	N	0	.	r	1r;
=1	=1	=1	=1	=1	=1
*>A_intro	*>A_intro	*>A_intro	*>A_intro	*>A_intro	*>A_intro
1I	G:maj	0.461	newline	r	1G 1b 1dd
=2	=2	=2	=2	=2	=2
1I	G:maj	2.485	.	r	1G 1b 1dd
=3	=3	=3	=3	=3	=3
1vi	E:min	4.508	.	r	1E 1g 1b
=4	=4	=4	=4	=4	=4
1vi	E:min	6.532	.	r	1E 1g 1b
=5	=5	=5	=5	=5	=5
1IV	C:maj	8.555	newline	r	1C 1e 1g
=6	=6	=6	=6	=6	=6
1IV	C:maj	10.557	.	r	1C 1e 1g
=7	=7	=7	=7	=7	=7
1V	D:maj	12.559	.	r	1D 1f# 1a
=8	=8	=8	=8	=8	=8
1V	D:maj	14.561	.	r	1D 1f# 1a
=9	=9	=9	=9	=9	=9
*>A_verse	*>A_verse	*>A_verse	*>A_verse	*>A_verse	*>A_verse
1I	G:maj	16.563	newline	voice	1G 1b 1dd
=10	=10	=10	=10	=10	=10
1I	G:maj	18.576	.	voice	1G 1b 1dd
=11	=11	=11	=11	=11	=11
1vi	E:min	20.588	.	voice	1E 1g 1b
=12	=12	=12	=12	=12	=12
1vi	E:min	22.6	.	voice	1E 1g 1b
=13	=13	=13	=13	=13	=13
1IV	C:maj	24.612	newline	voice	1C 1e 1g
=14	=14	=14	=14	=14	=14
1IV	C:maj	26.614	.	voice	1C 1e 1g
=15	=15	=15	=15	=15	=15
1V	D:maj	28.616	.	voice	1D 1f# 1a
=16	=16	=16	=16	=16	=16
1V	D:maj	30.618	.	voice	1D 1f# 1a
=17	=17	=17	=17	=17	=17
1I	G:maj	32.62	newline	voice	1G 1b 1dd
=18	=18	=18	=18	=18	=18
1I	G:maj	34.616	.	voice	1G 1b 1dd
=19	=19	=19	=19	=19	=19
1vi	E:min	36.612	.	voice	1E 1g 1b
=20	=20	=20	=20	=20	=20
1vi	E:min	38.608	.	voice	1E 1g 1b
=21	=21	=21	=21	=21	=21
1IV	C:maj	40.604	newline	voice	1C 1e 1g
=22	=22	=22	=22	=22	=22
1IV	C:maj	42.614	.	voice	1C 1e 1g
=23	=23	=23	=23	=23	=23
1V	D:maj	44.624	.	voice	1D 1f# 1a
=24	=24	=24	=24	=24	=24
1V	D:maj	46.635	.	voice	1D 1f# 1a
=25	=25	=25	=25	=25	=25
*>A_interlude	*>A_interlude	*>A_interlude	*>A_interlude	*>A_interlude	*>A_interlude
1I	G:maj	48.645	newline	voice	1G 1b 1dd
=26	=26	=26	=26	=26	=26
1I	G:maj	50.659	.	voice	1G 1b 1dd
=27	=27	=27	=27	=27	=27
1vi	E:min	52.673	.	voice	1E 1g 1b
=28	=28	=28	=28	=28	=28
1vi	E:min	54.688	.	voice	1E 1g 1b
=29	=29	=29	=29	=29	=29
1IV	C:maj	56.702	newline	voice	1C 1e 1g
=30	=30	=30	=30	=30	=30
1IV	C:maj	58.696	.	voice	1C 1e 1g
=31	=31	=31	=31	=31	=31
1V	D:maj	60.689	.	voice	1D 1f# 1a
=32	=32	=32	=32	=32	=32
1V	D:maj	62.683	.	voice	1D 1f# 1a
=33	=33	=33	=33	=33	=33
*>B_chorus	*>B_chorus	*>B_chorus	*>B_chorus	*>B_chorus	*>B_chorus
1IV	C:maj	64.676	newline	voice	1C 1e 1g
=34	=34	=34	=34	=34	=34
1ivm7	C:min7	66.683	.	voice	1C 1e- 1g 1b
=35	=35	=35	=35	=35	=35
1I	G:maj	68.689	.	voice	1G 1b 1dd
=36	=36	=36	=36	=36	=36
1Im7	G:7	70.696	.	voice	1G 1b 1dd 1ff#
=37	=37	=37	=37	=37	=37
1IV	C:maj	72.702	newline	voice	1C 1e 1g
=38	=38	=38	=38	=38	=38
1ivm7	C:min7	74.729	.	voice	1C 1e- 1g 1b
=39	=39	=39	=39	=39	=39
1II	A:maj	76.755	.	voice	1A 1cc# 1ee
=40	=40	=40	=40	=40	=40
1V7	D:7	78.782	.	voice	1D 1f# 1a 1cc
=41	=41	=41	=41	=41	=41
1I	G:maj	80.808	newline	voice	1G 1b 1dd
=42	=42	=42	=42	=42	=42
1I	G:maj	82.818	.	voice	1G 1b 1dd
=43	=43	=43	=43	=43	=43
1vi	E:min	84.829	.	voice	1E 1g 1b
=44	=44	=44	=44	=44	=44
1vi	E:min	86.839	.	voice	1E 1g 1b
=45	=45	=45	=45	=45	=45
1IV	C:maj	88.849	newline	voice	1C 1e 1g
=46	=46	=46	=46	=46	=46
1IV	C:maj	90.866	.	voice	1C 1e 1g
=47	=47	=47	=47	=47	=47
1V	D:maj	92.883	.	voice	1D 1f# 1a
=48	=48	=48	=48	=48	=48
1V	D:maj	94.9	.	voice	1D 1f# 1a
=49	=49	=49	=49	=49	=49
*>A_interlude	*>A_interlude	*>A_interlude	*>A_interlude	*>A_interlude	*>A_interlude
1I	G:maj	96.917	newline	voice	1G 1b 1dd
=50	=50	=50	=50	=50	=50
1I	G:maj	98.941	.	voice	1G 1b 1dd
=51	=51	=51	=51	=51	=51
1vi	E:min	100.965	.	voice	1E 1g 1b
=52	=52	=52	=52	=52	=52
1vi	E:min	102.988	.	voice	1E 1g 1b
=53	=53	=53	=53	=53	=53
1IV	C:maj	105.012	newline	voice	1C 1e 1g
=54	=54	=54	=54	=54	=54
1IV	C:maj	106.996	.	voice	1C 1e 1g
=55	=55	=55	=55	=55	=55
1V	D:maj	108.98	.	voice	1D 1f# 1a
=56	=56	=56	=56	=56	=56
1V	D:maj	110.963	.	voice	1D 1f# 1a
=57	=57	=57	=57	=57	=57
*>B_chorus	*>B_chorus	*>B_chorus	*>B_chorus	*>B_chorus	*>B_chorus
1IV	C:maj	112.947	newline	voice	1C 1e 1g
=58	=58	=58	=58	=58	=58
1ivm7	C:min7	114.973	.	voice	1C 1e- 1g 1b
=59	=59	=59	=59	=59	=59
1I	G:maj	117	.	voice	1G 1b 1dd
=60	=60	=60	=60	=60	=60
1Im7	G:7	119.027	.	voice	1G 1b 1dd 1ff#
=61	=61	=61	=61	=61	=61
1IV	C:maj	121.053	newline	voice	1C 1e 1g
=62	=62	=62	=62	=62	=62
1ivm7	C:min7	123.074	.	voice	1C 1e- 1g 1b
=63	=63	=63	=63	=63	=63
1II	A:maj	125.095	.	voice	1A 1cc# 1ee
=64	=64	=64	=64	=64	=64
1V7	D:7	127.116	.	voice	1D 1f# 1a 1cc
=65	=65	=65	=65	=65	=65
1I	G:maj	129.137	newline	voice	1G 1b 1dd
=66	=66	=66	=66	=66	=66
1I	G:maj	131.149	.	voice	1G 1b 1dd
=67	=67	=67	=67	=67	=67
1vi	E:min	133.16	.	voice	1E 1g 1b
=68	=68	=68	=68	=68	=68
1vi	E:min	135.172	.	voice	1E 1g 1b
=69	=69	=69	=69	=69	=69
1IV	C:maj	137.184	newline	voice	1C 1e 1g
=70	=70	=70	=70	=70	=70
1IV	C:maj	139.187	.	voice	1C 1e 1g
=71	=71	=71	=71	=71	=71
1V	D:maj	141.19	.	voice	1D 1f# 1a
=72	=72	=72	=72	=72	=72
1V	D:maj	143.194	.	voice	1D 1f# 1a
=73	=73	=73	=73	=73	=73
*>A_interlude	*>A_interlude	*>A_interlude	*>A_interlude	*>A_interlude	*>A_interlude
1I	G:maj	145.197	newline	fadeout	1G 1b 1dd
=74	=74	=74	=74	=74	=74
1I	G:maj	147.191	.	fadeout	1G 1b 1dd
=75	=75	=75	=75	=75	=75
1vi	E:min	149.184	.	fadeout	1E 1g 1b
=76	=76	=76	=76	=76	=76
1vi	E:min	151.177	.	fadeout	1E 1g 1b
=77	=77	=77	=77	=77	=77
1IV	C:maj	153.171	newline	voice	1C 1e 1g
=78	=78	=78	=78	=78	=78
1IV	C:maj	155.178	.	voice	1C 1e 1g
=79	=79	=79	=79	=79	=79
1V	D:maj	157.185	.	voice	1D 1f# 1a
=80	=80	=80	=80	=80	=80
1V	D:maj	159.193	.	voice	1D 1f# 1a
1r;	N	164.712	.	r	1r;
1r;	N	165.773	.	r	1r;
*-	*-	*-	*-	*-	*-
!!!OTL: Love Came To Me
!!!COC: Dion
!!!BillboardChartDate: 1962/12/22, 1963/01/19
!!!BillboardPeak: 10, 10
!!!BillboardWeeksOnChart: 11, 11
!!!SampleTargetRank: 10, 36
!!!SampleActualRank: 10, 37
!!!SampleID#: 253, 1152
!!!RDF**harmony: **recip + pitch class of root + harmonic quality
!!!RDF**harte: Chris Harte's syntax, used by MIREX
!!!RDF**phrase: newline = linebreak in original McGill transcription
!!!RDF**timestamp: McGill audio timestamp in seconds
!!!RDF**leadinstrument: original McGill primary instrumentation annotation
!!!RDT: 2017/01/12/
!!!ENC: Nathaniel Condit-Schultz
!!!EST: Awating manual error checking and editing.
